X:005
T:Miss Wharton Duff
C:William Marshall
Z:Nigel Gatherer
M:4/4
L:1/8
R:march
K:Bb
B,|B2 c2 d/f/d/B/ A/c/A/F/|EgDf Ce/c/ d/B/A/F/|
B2 c2 d/f/d/B/ A/c/A/F/|EgBb d/B/c/A/ B:|
f/g/4a/4|bf e/d/c/B/ b/f/e/d/ e/d/c/B/|egGc e/c/d/B/ B/A/G/F/|
EgDf Ce/c/ d/B/A/F/|b/f/d/B/ e/c/d/B/ F/B/A/c/ B:|
<end>
<start>
